; generated by Slic3r 1.2.9 on 2019-05-22 at 13:28:25

; external perimeters extrusion width = 0.50mm
; perimeters extrusion width = 0.72mm
; infill extrusion width = 0.72mm
; solid infill extrusion width = 0.72mm
; top infill extrusion width = 0.72mm

M107
M190 S60 ; set bed temperature
M104 S225 ; set temperature
G28 ; home all axes
G1 Z5 F5000 ; lift nozzle
M106 L255; Fan on or off only
M109 S225 ; wait for temperature to be reached
G21 ; set units to millimeters
G90 ; use absolute coordinates
M82 ; use absolute distances for extrusion
G92 E0
G1 E-5.00000 F2400.00000
G92 E0
G1 Z0.350 F9000.000
G1 X78.350 Y78.349 F9000.000
G1 E5.00000 F2400.00000
G1 X79.451 Y77.298 E5.10937 F600.000
G1 X80.052 Y76.768 E5.16695
G1 X80.917 Y76.053 E5.24758
G1 X81.550 Y75.562 E5.30512
G1 X82.459 Y74.901 E5.38584
G1 X83.121 Y74.451 E5.44337
G1 X84.070 Y73.849 E5.52406
G1 X84.759 Y73.441 E5.58159
G1 X85.743 Y72.900 E5.66226
G1 X86.457 Y72.537 E5.71980
G1 X87.473 Y72.059 E5.80043
G1 X88.208 Y71.741 E5.85797
G1 X89.250 Y71.328 E5.93850
G1 X90.004 Y71.057 E5.99604
G1 X91.075 Y70.709 E6.07693
G1 X91.844 Y70.485 E6.13446
G1 X92.928 Y70.207 E6.21491
G1 X93.710 Y70.032 E6.27245
G1 X94.815 Y69.821 E6.35323
G1 X95.606 Y69.696 E6.41076
G1 X96.720 Y69.555 E6.49145
G1 X97.519 Y69.480 E6.54909
G1 X98.636 Y69.409 E6.62947
G1 X99.438 Y69.384 E6.68710
G1 X100.574 Y69.385 E6.76872
G1 X101.363 Y69.409 E6.82543 F600.000
G1 X102.481 Y69.480 E6.90591
G1 X103.278 Y69.555 E6.96344
G1 X104.407 Y69.698 E7.04518
G1 X105.185 Y69.821 E7.10177
G1 X106.290 Y70.032 E7.18254
G1 X107.072 Y70.207 E7.24009
G1 X108.156 Y70.485 E7.32050
G1 X108.925 Y70.709 E7.37807
G1 X109.996 Y71.057 E7.45896
G1 X110.750 Y71.328 E7.51650
G1 X111.791 Y71.740 E7.59694
G1 X112.527 Y72.059 E7.65457
G1 X113.543 Y72.537 E7.73519
G1 X114.257 Y72.900 E7.79273
G1 X115.241 Y73.441 E7.87340
G1 X115.930 Y73.849 E7.93094
G1 X116.878 Y74.450 E8.01154
G1 X117.541 Y74.901 E8.06916
G1 X118.450 Y75.562 E8.14988
G1 X119.083 Y76.053 E8.20742
G1 X119.948 Y76.768 E8.28805
G1 X120.549 Y77.298 E8.34559
G1 X121.367 Y78.066 E8.42624
G1 X121.934 Y78.633 E8.48378
G1 X122.702 Y79.451 E8.56444
G1 X123.232 Y80.052 E8.62198
G1 X123.947 Y80.917 E8.70261
G1 X124.438 Y81.550 E8.76015
G1 X125.099 Y82.459 E8.84087
G1 X125.549 Y83.122 E8.89843
G1 X126.151 Y84.070 E8.97909
G1 X126.559 Y84.760 E9.03668
G1 X127.100 Y85.743 E9.11730
G1 X127.457 Y86.444 E9.17383
G1 X127.941 Y87.473 E9.25546
G1 X128.260 Y88.209 E9.31310
G1 X128.672 Y89.250 E9.39353
G1 X128.943 Y90.004 E9.45107
G1 X129.291 Y91.074 E9.53195
G1 X129.515 Y91.844 E9.58949
G1 X129.793 Y92.928 E9.66994
G1 X129.968 Y93.710 E9.72748
G1 X130.179 Y94.815 E9.80825
G1 X130.304 Y95.607 E9.86586
G1 X130.445 Y96.722 E9.94658
G1 X130.520 Y97.519 E10.00412
G1 X130.591 Y98.637 E10.08459
G1 X130.616 Y99.438 E10.14213
G1 X130.616 Y100.562 E10.22293
G1 X130.591 Y101.363 E10.28046
G1 X130.520 Y102.481 E10.36094
G1 X130.445 Y103.279 E10.41850
G1 X130.304 Y104.394 E10.49926
G1 X130.179 Y105.185 E10.55680
G1 X129.968 Y106.290 E10.63758
G1 X129.793 Y107.072 E10.69512
G1 X129.515 Y108.156 E10.77557
G1 X129.291 Y108.927 E10.83322
G1 X128.943 Y109.996 E10.91399
G1 X128.672 Y110.750 E10.97153
G1 X128.259 Y111.792 E11.05206
G1 X127.941 Y112.527 E11.10960
G1 X127.463 Y113.543 E11.19022
G1 X127.100 Y114.257 E11.24776
G1 X126.559 Y115.241 E11.32844
G1 X126.151 Y115.930 E11.38597
G1 X125.549 Y116.879 E11.46666
G1 X125.099 Y117.541 E11.52419
G1 X124.438 Y118.450 E11.60491
G1 X123.947 Y119.083 E11.66245
G1 X123.232 Y119.948 E11.74308
G1 X122.711 Y120.539 E11.79966
G1 X121.934 Y121.367 E11.88128
G1 X121.367 Y121.934 E11.93881
G1 X120.539 Y122.711 E12.02043
G1 X119.948 Y123.232 E12.07701
G1 X119.083 Y123.947 E12.15764
G1 X118.450 Y124.438 E12.21518
G1 X117.541 Y125.099 E12.29590
G1 X116.879 Y125.549 E12.35343
G1 X115.930 Y126.151 E12.43412
G1 X115.241 Y126.559 E12.49165
G1 X114.257 Y127.100 E12.57233
G1 X113.543 Y127.463 E12.62987
G1 X112.527 Y127.941 E12.71049
G1 X111.792 Y128.259 E12.76803
G1 X110.750 Y128.672 E12.84856
G1 X109.996 Y128.943 E12.90610
G1 X108.927 Y129.291 E12.98687
G1 X108.156 Y129.515 E13.04452
G1 X107.072 Y129.793 E13.12497
G1 X106.290 Y129.968 E13.18251
G1 X105.185 Y130.179 E13.26329
G1 X104.394 Y130.304 E13.32083
G1 X103.280 Y130.445 E13.40151
G1 X102.481 Y130.520 E13.45915
G1 X101.363 Y130.591 E13.53963
G1 X100.562 Y130.616 E13.59716
G1 X99.439 Y130.616 E13.67787
G1 X98.637 Y130.591 E13.73550
G1 X97.519 Y130.520 E13.81597
G1 X96.722 Y130.445 E13.87350
G1 X95.606 Y130.304 E13.95430
G1 X94.815 Y130.179 E14.01183
G1 X93.710 Y129.968 E14.09261
G1 X92.928 Y129.793 E14.15015
G1 X91.844 Y129.515 E14.23059
G1 X91.074 Y129.291 E14.28813
G1 X90.004 Y128.943 E14.36902
G1 X89.250 Y128.672 E14.42656
G1 X88.209 Y128.260 E14.50699
G1 X87.473 Y127.941 E14.56463
G1 X86.458 Y127.464 E14.64514
G1 X85.743 Y127.100 E14.70279
G1 X84.760 Y126.559 E14.78341
G1 X84.070 Y126.151 E14.84100
G1 X83.121 Y125.549 E14.92168
G1 X82.459 Y125.099 E14.97923
G1 X81.550 Y124.438 E15.05994
G1 X80.917 Y123.947 E15.11748
G1 X80.052 Y123.232 E15.19811
G1 X79.451 Y122.702 E15.25565
G1 X78.633 Y121.934 E15.33631
G1 X78.066 Y121.367 E15.39385
G1 X77.298 Y120.549 E15.47450
G1 X76.768 Y119.948 E15.53206
G1 X76.053 Y119.083 E15.61267
G1 X75.562 Y118.450 E15.67021
G1 X74.901 Y117.541 E15.75093
G1 X74.450 Y116.877 E15.80857
G1 X73.849 Y115.930 E15.88915
G1 X73.441 Y115.241 E15.94669
G1 X72.900 Y114.257 E16.02736
G1 X72.537 Y113.543 E16.08490
G1 X72.059 Y112.527 E16.16552
G1 X71.741 Y111.792 E16.22307
G1 X71.328 Y110.750 E16.30360
G1 X71.057 Y109.996 E16.36114
G1 X70.709 Y108.925 E16.44202
G1 X70.485 Y108.156 E16.49961
G1 X70.207 Y107.072 E16.58000
G1 X70.032 Y106.290 E16.63755
G1 X69.821 Y105.185 E16.71832
G1 X69.698 Y104.408 E16.77485
G1 X69.555 Y103.278 E16.85665
G1 X69.480 Y102.481 E16.91418
G1 X69.409 Y101.363 E16.99466
G1 X69.385 Y100.576 E17.05119
G1 X69.384 Y99.438 E17.13299
G1 X69.409 Y98.636 E17.19062
G1 X69.480 Y97.519 E17.27100
G1 X69.555 Y96.720 E17.32864
G1 X69.696 Y95.606 E17.40932
G1 X69.819 Y94.829 E17.46586
G1 X70.032 Y93.710 E17.54764
G1 X70.207 Y92.928 E17.60518
G1 X70.485 Y91.844 E17.68563
G1 X70.709 Y91.075 E17.74316
G1 X71.057 Y90.004 E17.82405
G1 X71.329 Y89.249 E17.88170
G1 X71.741 Y88.208 E17.96212
G1 X72.053 Y87.485 E18.01865
G1 X72.537 Y86.457 E18.10028
G1 X72.900 Y85.743 E18.15782
G1 X73.441 Y84.759 E18.23849
G1 X73.842 Y84.082 E18.29502
G1 X74.451 Y83.121 E18.37672
G1 X74.901 Y82.459 E18.43425
G1 X75.562 Y81.550 E18.51497
G1 X76.053 Y80.917 E18.57253
G1 X76.768 Y80.052 E18.65314
G1 X77.298 Y79.451 E18.71072
G1 X78.297 Y78.403 E18.81472
G1 X78.791 Y78.791 F9000.000
G1 X79.864 Y77.767 E18.92127 F600.000
G1 X80.465 Y77.237 E18.97884
G1 X81.300 Y76.546 E19.05666
G1 X81.933 Y76.055 E19.11420
G1 X82.810 Y75.418 E19.19209
G1 X83.473 Y74.968 E19.24963
G1 X84.388 Y74.387 E19.32749
G1 X85.077 Y73.979 E19.38503
G1 X86.027 Y73.457 E19.46287
G1 X86.741 Y73.094 E19.52042
G1 X87.721 Y72.632 E19.59823
G1 X88.456 Y72.314 E19.65576
G1 X89.462 Y71.916 E19.73348
G1 X90.215 Y71.645 E19.79102
G1 X91.249 Y71.309 E19.86908
G1 X92.018 Y71.085 E19.92662
G1 X93.065 Y70.817 E20.00425
G1 X93.846 Y70.642 E20.06179
G1 X94.912 Y70.438 E20.13975
G1 X95.704 Y70.313 E20.19728
G1 X96.779 Y70.177 E20.27515
G1 X97.578 Y70.102 E20.33278
G1 X98.655 Y70.034 E20.41035
G1 X99.457 Y70.009 E20.46798
G1 X100.554 Y70.009 E20.54678
G1 X101.343 Y70.034 E20.60349 F600.000
G1 X102.422 Y70.102 E20.68115
G1 X103.220 Y70.177 E20.73869
G1 X104.310 Y70.315 E20.81766
G1 X105.088 Y70.438 E20.87419
G1 X106.153 Y70.642 E20.95213
G1 X106.935 Y70.817 E21.00968
G1 X107.982 Y71.085 E21.08729
G1 X108.751 Y71.309 E21.14485
G1 X109.785 Y71.645 E21.22291
G1 X110.538 Y71.916 E21.28045
G1 X111.543 Y72.314 E21.35808
G1 X112.279 Y72.632 E21.41571
G1 X113.259 Y73.094 E21.49351
G1 X113.973 Y73.457 E21.55105
G1 X114.923 Y73.979 E21.62890
G1 X115.612 Y74.387 E21.68644
G1 X116.527 Y74.967 E21.76422
G1 X117.190 Y75.418 E21.82184
G1 X118.067 Y76.055 E21.89973
G1 X118.700 Y76.546 E21.95728
G1 X119.535 Y77.237 E22.03509
G1 X120.136 Y77.766 E22.09263
G1 X120.925 Y78.508 E22.17046
G1 X121.492 Y79.075 E22.22800
G1 X122.234 Y79.864 E22.30584
G1 X122.763 Y80.465 E22.36338
G1 X123.454 Y81.300 E22.44119
G1 X123.945 Y81.933 E22.49873
G1 X124.582 Y82.810 E22.57662
G1 X125.025 Y83.461 E22.63318
G1 X125.613 Y84.388 E22.71202
G1 X126.021 Y85.078 E22.76962
G1 X126.543 Y86.027 E22.84742
G1 X126.900 Y86.728 E22.90394
G1 X127.368 Y87.721 E22.98276
G1 X127.686 Y88.457 E23.04039
G1 X128.084 Y89.462 E23.11801
G1 X128.355 Y90.215 E23.17555
G1 X128.691 Y91.249 E23.25361
G1 X128.915 Y92.018 E23.31114
G1 X129.183 Y93.065 E23.38879
G1 X129.358 Y93.847 E23.44632
G1 X129.562 Y94.912 E23.52427
G1 X129.687 Y95.704 E23.58187
G1 X129.823 Y96.780 E23.65978
G1 X129.898 Y97.578 E23.71731
G1 X129.966 Y98.657 E23.79497
G1 X129.991 Y99.457 E23.85251
G1 X129.991 Y100.543 E23.93048
G1 X129.966 Y101.343 E23.98802
G1 X129.898 Y102.422 E24.06568
G1 X129.823 Y103.220 E24.12324
G1 X129.687 Y104.296 E24.20118
G1 X129.562 Y105.088 E24.25872
G1 X129.358 Y106.154 E24.33667
G1 X129.183 Y106.935 E24.39421
G1 X128.915 Y107.982 E24.47185
G1 X128.691 Y108.753 E24.52950
G1 X128.355 Y109.785 E24.60744
G1 X128.084 Y110.538 E24.66498
G1 X127.686 Y111.544 E24.74270
G1 X127.368 Y112.279 E24.80024
G1 X126.906 Y113.259 E24.87804
G1 X126.543 Y113.973 E24.93558
G1 X126.021 Y114.923 E25.01344
G1 X125.613 Y115.612 E25.07097
G1 X125.032 Y116.527 E25.14884
G1 X124.582 Y117.190 E25.20637
G1 X123.945 Y118.067 E25.28427
G1 X123.454 Y118.700 E25.34180
G1 X122.763 Y119.535 E25.41962
G1 X122.243 Y120.125 E25.47615
G1 X121.492 Y120.925 E25.55499
G1 X120.925 Y121.492 E25.61253
G1 X120.125 Y122.242 E25.69133
G1 X119.535 Y122.763 E25.74791
G1 X118.700 Y123.454 E25.82572
G1 X118.067 Y123.945 E25.88326
G1 X117.190 Y124.582 E25.96115
G1 X116.527 Y125.032 E26.01869
G1 X115.612 Y125.613 E26.09655
G1 X114.923 Y126.021 E26.15409
G1 X113.973 Y126.543 E26.23195
G1 X113.259 Y126.906 E26.28948
G1 X112.279 Y127.368 E26.36729
G1 X111.544 Y127.686 E26.42483
G1 X110.538 Y128.084 E26.50254
G1 X109.785 Y128.355 E26.56008
G1 X108.753 Y128.691 E26.63803
G1 X107.982 Y128.915 E26.69568
G1 X106.935 Y129.183 E26.77332
G1 X106.154 Y129.358 E26.83086
G1 X105.088 Y129.562 E26.90881
G1 X104.296 Y129.687 E26.96635
G1 X103.221 Y129.823 E27.04421
G1 X102.422 Y129.898 E27.10185
G1 X101.343 Y129.966 E27.17951
G1 X100.543 Y129.991 E27.23704
G1 X99.459 Y129.991 E27.31493
G1 X98.657 Y129.966 E27.37255
G1 X97.578 Y129.898 E27.45021
G1 X96.780 Y129.823 E27.50775
G1 X95.704 Y129.687 E27.58571
G1 X94.912 Y129.562 E27.64325
G1 X93.846 Y129.358 E27.72120
G1 X93.065 Y129.183 E27.77874
G1 X92.018 Y128.915 E27.85638
G1 X91.249 Y128.691 E27.91392
G1 X90.215 Y128.355 E27.99198
G1 X89.462 Y128.084 E28.04952
G1 X88.457 Y127.686 E28.12713
G1 X87.721 Y127.368 E28.18477
G1 X86.742 Y126.907 E28.26247
G1 X86.027 Y126.543 E28.32011
G1 X85.078 Y126.021 E28.39791
G1 X84.388 Y125.613 E28.45550
G1 X83.473 Y125.032 E28.53336
G1 X82.810 Y124.582 E28.59091
G1 X81.933 Y123.945 E28.66880
G1 X81.300 Y123.454 E28.72634
G1 X80.465 Y122.763 E28.80415
G1 X79.865 Y122.234 E28.86169
G1 X79.075 Y121.492 E28.93953
G1 X78.508 Y120.925 E28.99707
G1 X77.766 Y120.136 E29.07490
G1 X77.237 Y119.534 E29.13246
G1 X76.546 Y118.700 E29.21025
G1 X76.055 Y118.067 E29.26779
G1 X75.418 Y117.190 E29.34568
G1 X74.967 Y116.526 E29.40333
G1 X74.387 Y115.612 E29.48109
G1 X73.979 Y114.923 E29.53863
G1 X73.457 Y113.973 E29.61648
G1 X73.094 Y113.259 E29.67401
G1 X72.632 Y112.279 E29.75182
G1 X72.314 Y111.544 E29.80937
G1 X71.916 Y110.538 E29.88708
G1 X71.645 Y109.785 E29.94462
G1 X71.309 Y108.751 E30.02267
G1 X71.085 Y107.981 E30.08027
G1 X70.817 Y106.935 E30.15785
G1 X70.642 Y106.153 E30.21540
G1 X70.438 Y105.088 E30.29334
G1 X70.315 Y104.310 E30.34987
G1 X70.177 Y103.220 E30.42884
G1 X70.102 Y102.422 E30.48638
G1 X70.034 Y101.343 E30.56404
G1 X70.009 Y100.557 E30.62057
G1 X70.009 Y99.457 E30.69954
G1 X70.034 Y98.655 E30.75717
G1 X70.102 Y97.578 E30.83474
G1 X70.177 Y96.779 E30.89238
G1 X70.313 Y95.704 E30.97024
G1 X70.436 Y94.926 E31.02677
G1 X70.642 Y93.846 E31.10573
G1 X70.817 Y93.065 E31.16327
G1 X71.085 Y92.018 E31.24091
G1 X71.309 Y91.249 E31.29845
G1 X71.645 Y90.215 E31.37650
G1 X71.916 Y89.460 E31.43415
G1 X72.314 Y88.456 E31.51176
G1 X72.627 Y87.734 E31.56829
G1 X73.094 Y86.741 E31.64710
G1 X73.457 Y86.027 E31.70464
G1 X73.979 Y85.077 E31.78249
G1 X74.380 Y84.399 E31.83912
G1 X74.968 Y83.473 E31.91790
G1 X75.418 Y82.810 E31.97543
G1 X76.055 Y81.933 E32.05333
G1 X76.546 Y81.300 E32.11089
G1 X77.237 Y80.465 E32.18868
G1 X77.767 Y79.864 E32.24626
G1 X78.738 Y78.844 E32.34744
G1 X79.233 Y79.233 F9000.000
G1 X80.277 Y78.236 E32.45117 F600.000
G1 X80.879 Y77.705 E32.50874
G1 X81.683 Y77.040 E32.58374
G1 X82.316 Y76.549 E32.64128
G1 X83.161 Y75.935 E32.71635
G1 X83.824 Y75.485 E32.77389
G1 X84.706 Y74.925 E32.84893
G1 X85.395 Y74.517 E32.90647
G1 X86.311 Y74.014 E32.98149
G1 X87.024 Y73.650 E33.03904
G1 X87.969 Y73.206 E33.11403
G1 X88.704 Y72.888 E33.17156
G1 X89.673 Y72.504 E33.24647
G1 X90.427 Y72.232 E33.30400
G1 X91.423 Y71.909 E33.37924
G1 X92.192 Y71.685 E33.43677
G1 X93.201 Y71.426 E33.51160
G1 X93.983 Y71.252 E33.56914
G1 X95.010 Y71.056 E33.64427
G1 X95.801 Y70.930 E33.70180
G1 X96.838 Y70.799 E33.77685
G1 X97.636 Y70.724 E33.83448
G1 X98.675 Y70.659 E33.90924
G1 X99.477 Y70.633 E33.96687
G1 X100.535 Y70.634 E34.04285
G1 X101.324 Y70.659 E34.09955 F600.000
G1 X102.364 Y70.724 E34.17439
G1 X103.161 Y70.799 E34.23193
G1 X104.198 Y70.930 E34.30701
G1 X104.990 Y71.056 E34.36461
G1 X106.017 Y71.252 E34.43973
G1 X106.799 Y71.426 E34.49728
G1 X107.807 Y71.685 E34.57207
G1 X108.577 Y71.909 E34.62964
G1 X109.573 Y72.233 E34.70487
G1 X110.327 Y72.504 E34.76241
G1 X111.295 Y72.887 E34.83722
G1 X112.031 Y73.206 E34.89485
G1 X112.976 Y73.650 E34.96983
G1 X113.689 Y74.014 E35.02737
G1 X114.605 Y74.517 E35.10240
G1 X115.294 Y74.925 E35.15994
G1 X116.175 Y75.484 E35.23491
G1 X116.839 Y75.935 E35.29252
G1 X117.684 Y76.549 E35.36759
G1 X118.317 Y77.040 E35.42513
G1 X119.121 Y77.706 E35.50013
G1 X119.722 Y78.235 E35.55767
G1 X120.484 Y78.950 E35.63268
G1 X121.050 Y79.516 E35.69022
G1 X121.765 Y80.278 E35.76524
G1 X122.295 Y80.879 E35.82278
G1 X122.960 Y81.683 E35.89777
G1 X123.451 Y82.316 E35.95531
G1 X124.065 Y83.161 E36.03038
G1 X124.516 Y83.824 E36.08795
G1 X125.075 Y84.706 E36.16296
G1 X125.483 Y85.396 E36.22056
G1 X125.986 Y86.311 E36.29554
G1 X126.343 Y87.012 E36.35206
G1 X126.794 Y87.969 E36.42806
G1 X127.113 Y88.705 E36.48569
G1 X127.496 Y89.673 E36.56050
G1 X127.767 Y90.427 E36.61803
G1 X128.091 Y91.423 E36.69327
G1 X128.315 Y92.192 E36.75080
G1 X128.574 Y93.201 E36.82563
G1 X128.748 Y93.983 E36.88317
G1 X128.944 Y95.010 E36.95829
G1 X129.070 Y95.802 E37.01589
G1 X129.201 Y96.839 E37.09098
G1 X129.276 Y97.636 E37.14851
G1 X129.341 Y98.676 E37.22336
G1 X129.367 Y99.477 E37.28090
G1 X129.367 Y100.523 E37.35604
G1 X129.341 Y101.324 E37.41358
G1 X129.276 Y102.364 E37.48843
G1 X129.201 Y103.161 E37.54598
G1 X129.070 Y104.199 E37.62110
G1 X128.944 Y104.990 E37.67864
G1 X128.748 Y106.017 E37.75377
G1 X128.574 Y106.799 E37.81131
G1 X128.315 Y107.808 E37.88613
G1 X128.091 Y108.578 E37.94378
G1 X127.767 Y109.573 E38.01890
G1 X127.496 Y110.327 E38.07644
G1 X127.112 Y111.296 E38.15134
G1 X126.794 Y112.031 E38.20888
G1 X126.350 Y112.976 E38.28387
G1 X125.986 Y113.689 E38.34140
G1 X125.483 Y114.605 E38.41644
G1 X125.075 Y115.294 E38.47398
G1 X124.515 Y116.176 E38.54902
G1 X124.065 Y116.839 E38.60656
G1 X123.451 Y117.684 E38.68163
G1 X122.960 Y118.317 E38.73917
G1 X122.295 Y119.121 E38.81416
G1 X121.774 Y119.712 E38.87069
G1 X121.050 Y120.484 E38.94672
G1 X120.484 Y121.050 E39.00425
G1 X119.723 Y121.764 E39.07923
G1 X119.121 Y122.295 E39.13681
G1 X118.317 Y122.960 E39.21180
G1 X117.684 Y123.451 E39.26934
G1 X116.839 Y124.065 E39.34442
G1 X116.176 Y124.515 E39.40195
G1 X115.294 Y125.075 E39.47700
G1 X114.605 Y125.483 E39.53453
G1 X113.689 Y125.986 E39.60957
G1 X112.976 Y126.350 E39.66711
G1 X112.031 Y126.794 E39.74209
