; generated by Slic3r 1.3.0 on 2019-05-21 at 09:35:17

; external perimeters extrusion width = 0.55mm (3.64mm^3/s)
; perimeters extrusion width = 0.70mm (9.53mm^3/s)
; infill extrusion width = 0.63mm (10.09mm^3/s)
; solid infill extrusion width = 0.70mm (5.72mm^3/s)
; top infill extrusion width = 0.70mm (2.86mm^3/s)

M107
M190 S65 ; set bed temperature and wait for it to be reached
M104 S215 ; set temperature
G28 ; home all axes
G1 Z5 F5000 ; lift nozzle
M106 L16; Min 1/16 Fan speed
; Filament gcode

M109 S215 ; set temperature and wait for it to be reached
G21 ; set units to millimeters
G90 ; use absolute coordinates
M82 ; use absolute distances for extrusion
G92 E0
G1 E-5.00000 F2400.00000
G92 E0
G1 Z0.350 F12000.000
G1 X54.096 Y74.011 F12000.000
G1 E5.00000 F2400.00000
G1 F900
G1 X55.556 Y73.044 E5.13689
G1 X57.417 Y71.969 E5.30501
G1 X58.984 Y71.189 E5.44190
G1 X60.222 Y70.646 E5.54755
G1 X61.857 Y70.022 E5.68444
G1 X63.524 Y69.489 E5.82133
G1 X65.608 Y68.961 E5.98945
G1 X67.329 Y68.636 E6.12634
G1 X68.667 Y68.451 E6.23199
G1 X70.809 Y68.273 E6.40011
G1 X72.360 Y68.233 E6.52139
G1 X127.840 Y68.236 E10.85991
G1 X129.191 Y68.273 E10.96557
G1 X130.936 Y68.407 E11.10246
G1 X133.065 Y68.702 E11.27057
G1 X134.392 Y68.961 E11.37623
G1 X136.091 Y69.380 E11.51312
G1 X138.143 Y70.022 E11.68124
G1 X139.408 Y70.495 E11.78690
G1 X141.016 Y71.189 E11.92378
G1 X142.583 Y71.969 E12.06067
G1 X144.104 Y72.835 E12.19756
G1 X145.576 Y73.783 E12.33445
G1 X146.993 Y74.811 E12.47134
G1 X148.351 Y75.915 E12.60823
G1 X149.268 Y76.745 E12.70498
G1 X149.932 Y77.371 E12.77636
G1 X151.145 Y78.634 E12.91325
G1 X152.287 Y79.961 E13.05014
G1 X153.353 Y81.349 E13.18703
G1 X154.123 Y82.459 E13.29268
G1 X155.049 Y83.945 E13.42957
G1 X155.892 Y85.479 E13.56646
G1 X156.649 Y87.058 E13.70335
G1 X157.458 Y89.049 E13.87147
G1 X158.016 Y90.709 E14.00836
G1 X158.481 Y92.396 E14.14525
G1 X158.777 Y93.714 E14.25090
G1 X159.076 Y95.439 E14.38780
G1 X159.279 Y97.178 E14.52469
G1 X159.387 Y98.925 E14.66157
G1 X159.398 Y100.676 E14.79846
G1 X159.341 Y101.911 E14.89521
G1 X159.279 Y102.822 E14.96659
G1 X159.076 Y104.561 E15.10348
G1 X158.854 Y105.893 E15.20914
G1 X158.481 Y107.604 E15.34603
G1 X158.016 Y109.291 E15.48291
G1 X157.458 Y110.951 E15.61981
G1 X156.809 Y112.577 E15.75669
G1 X156.072 Y114.164 E15.89359
G1 X155.249 Y115.709 E16.03047
G1 X154.123 Y117.541 E16.19859
G1 X153.116 Y118.973 E16.33548
G1 X152.287 Y120.039 E16.44114
G1 X151.482 Y120.979 E16.53788
G1 X150.875 Y121.660 E16.60926
G1 X149.932 Y122.629 E16.71492
G1 X148.652 Y123.822 E16.85181
G1 X147.308 Y124.944 E16.98870
G1 X145.576 Y126.217 E17.15682
G1 X144.104 Y127.165 E17.29371
G1 X142.583 Y128.031 E17.43060
G1 X141.377 Y128.641 E17.53626
G1 X140.249 Y129.148 E17.63299
G1 X139.408 Y129.505 E17.70438
G1 X138.143 Y129.978 E17.81003
G1 X136.476 Y130.511 E17.94693
G1 X134.392 Y131.039 E18.11504
G1 X132.671 Y131.364 E18.25193
G1 X130.936 Y131.593 E18.38882
G1 X129.191 Y131.727 E18.52571
G1 X127.640 Y131.767 E18.64699
G1 X72.160 Y131.764 E22.98551
G1 X70.809 Y131.727 E23.09117
G1 X69.064 Y131.593 E23.22806
G1 X66.935 Y131.298 E23.39617
G1 X65.219 Y130.952 E23.53306
G1 X63.909 Y130.620 E23.63872
G1 X61.857 Y129.978 E23.80684
G1 X60.222 Y129.354 E23.94373
G1 X58.984 Y128.811 E24.04938
G1 X57.875 Y128.263 E24.14612
G1 X57.066 Y127.841 E24.21751
G1 X55.896 Y127.165 E24.32317
G1 X54.424 Y126.217 E24.46006
G1 X53.007 Y125.189 E24.59695
G1 X51.348 Y123.822 E24.76506
G1 X50.354 Y122.907 E24.87072
G1 X49.125 Y121.660 E25.00761
G1 X47.967 Y120.347 E25.14450
G1 X46.884 Y118.973 E25.28139
G1 X45.659 Y117.206 E25.44950
G1 X44.951 Y116.055 E25.55516
G1 X44.108 Y114.521 E25.69205
G1 X43.351 Y112.942 E25.82894
G1 X42.682 Y111.325 E25.96583
G1 X41.984 Y109.291 E26.13395
G1 X41.617 Y107.991 E26.23960
G1 X41.335 Y106.787 E26.33635
G1 X41.146 Y105.893 E26.40773
G1 X40.924 Y104.561 E26.51339
G1 X40.721 Y102.822 E26.65028
G1 X40.602 Y100.676 E26.81839
G1 X40.602 Y99.324 E26.92405
G1 X40.659 Y98.089 E27.02079
G1 X40.721 Y97.178 E27.09218
G1 X40.869 Y95.835 E27.19783
G1 X41.146 Y94.107 E27.33472
G1 X41.617 Y92.009 E27.50284
G1 X42.103 Y90.327 E27.63973
G1 X42.542 Y89.049 E27.74539
G1 X43.191 Y87.423 E27.88228
G1 X43.928 Y85.836 E28.01917
G1 X44.951 Y83.945 E28.18728
G1 X45.877 Y82.459 E28.32417
G1 X46.884 Y81.027 E28.46106
G1 X47.713 Y79.961 E28.56672
G1 X48.855 Y78.634 E28.70361
G1 X50.354 Y77.093 E28.87172
G1 X51.649 Y75.915 E29.00862
G1 X52.692 Y75.056 E29.11427
G1 X54.036 Y74.055 E29.24530
G1 X54.466 Y74.514 F12000.000
G1 F900
G1 X55.897 Y73.567 E29.37949
G1 X57.700 Y72.527 E29.54223
G1 X59.235 Y71.761 E29.67642
G1 X60.811 Y71.081 E29.81062
G1 X62.076 Y70.607 E29.91628
G1 X63.711 Y70.085 E30.05048
G1 X65.728 Y69.574 E30.21321
G1 X67.054 Y69.315 E30.31886
G1 X68.753 Y69.070 E30.45306
G1 X70.827 Y68.898 E30.61579
G1 X72.360 Y68.858 E30.73573
G1 X127.823 Y68.860 E35.07290
G1 X129.173 Y68.898 E35.17856
G1 X130.884 Y69.029 E35.31275
G1 X132.946 Y69.315 E35.47549
G1 X134.272 Y69.574 E35.58114
G1 X135.938 Y69.986 E35.71534
G1 X137.924 Y70.607 E35.87808
G1 X139.189 Y71.081 E35.98373
G1 X140.765 Y71.761 E36.11793
G1 X142.300 Y72.527 E36.25213
G1 X143.792 Y73.376 E36.38632
G1 X145.234 Y74.306 E36.52052
G1 X146.622 Y75.314 E36.65472
G1 X147.954 Y76.398 E36.78892
G1 X148.845 Y77.205 E36.88297
G1 X149.485 Y77.807 E36.95166
G1 X150.674 Y79.044 E37.08585
G1 X151.793 Y80.345 E37.22005
G1 X152.839 Y81.705 E37.35425
G1 X153.609 Y82.815 E37.45990
G1 X154.517 Y84.272 E37.59410
G1 X155.342 Y85.777 E37.72830
G1 X156.084 Y87.324 E37.86250
G1 X156.867 Y89.252 E38.02523
G1 X157.414 Y90.879 E38.15943
G1 X157.872 Y92.533 E38.29362
G1 X158.237 Y94.209 E38.42782
G1 X158.460 Y95.542 E38.53348
G1 X158.658 Y97.247 E38.66768
G1 X158.763 Y98.959 E38.80187
G1 X158.763 Y101.041 E38.96461
G1 X158.658 Y102.753 E39.09880
G1 X158.460 Y104.458 E39.23300
G1 X158.237 Y105.791 E39.33866
G1 X157.872 Y107.467 E39.47286
G1 X157.414 Y109.121 E39.60705
G1 X156.867 Y110.748 E39.74125
G1 X156.230 Y112.341 E39.87545
G1 X155.507 Y113.898 E40.00965
G1 X154.517 Y115.728 E40.17238
G1 X153.609 Y117.185 E40.30658
G1 X152.623 Y118.589 E40.44077
G1 X151.793 Y119.655 E40.54643
G1 X151.011 Y120.569 E40.64048
G1 X150.427 Y121.225 E40.70917
G1 X149.485 Y122.193 E40.81483
G1 X148.229 Y123.363 E40.94902
G1 X146.911 Y124.461 E41.08322
G1 X145.534 Y125.486 E41.21742
G1 X144.103 Y126.433 E41.35162
G1 X142.300 Y127.473 E41.51435
G1 X141.095 Y128.083 E41.62001
G1 X139.998 Y128.576 E41.71405
G1 X139.189 Y128.919 E41.78275
G1 X137.924 Y129.393 E41.88840
G1 X136.289 Y129.915 E42.02260
G1 X134.272 Y130.426 E42.18533
G1 X132.586 Y130.745 E42.31953
G1 X130.884 Y130.971 E42.45373
G1 X129.173 Y131.102 E42.58793
G1 X127.640 Y131.142 E42.70786
G1 X72.177 Y131.140 E47.04503
G1 X70.827 Y131.102 E47.15069
G1 X69.116 Y130.971 E47.28489
G1 X67.054 Y130.685 E47.44762
G1 X65.728 Y130.426 E47.55327
G1 X64.062 Y130.014 E47.68747
G1 X62.076 Y129.393 E47.85021
G1 X60.473 Y128.782 E47.98440
G1 X59.235 Y128.239 E48.09006
G1 X58.158 Y127.705 E48.18411
G1 X57.378 Y127.300 E48.25280
G1 X56.208 Y126.624 E48.35846
G1 X54.766 Y125.694 E48.49266
G1 X53.377 Y124.686 E48.62685
G1 X51.771 Y123.363 E48.78959
G1 X50.777 Y122.448 E48.89524
G1 X49.573 Y121.225 E49.02944
G1 X48.439 Y119.937 E49.16364
G1 X47.160 Y118.295 E49.32637
G1 X46.191 Y116.879 E49.46057
G1 X45.483 Y115.728 E49.56623
G1 X44.658 Y114.223 E49.70042
G1 X43.916 Y112.676 E49.83462
G1 X43.261 Y111.090 E49.96882
G1 X42.586 Y109.121 E50.13155
G1 X42.218 Y107.821 E50.23721
G1 X41.945 Y106.650 E50.33126
G1 X41.763 Y105.791 E50.39995
G1 X41.540 Y104.458 E50.50560
G1 X41.342 Y102.753 E50.63980
G1 X41.227 Y100.676 E50.80254
G1 X41.227 Y99.324 E50.90819
G1 X41.283 Y98.123 E51.00224
G1 X41.342 Y97.247 E51.07093
G1 X41.490 Y95.904 E51.17659
G1 X41.763 Y94.209 E51.31079
G1 X42.218 Y92.179 E51.47352
G1 X42.695 Y90.530 E51.60772
G1 X43.133 Y89.252 E51.71337
G1 X43.770 Y87.659 E51.84757
G1 X44.493 Y86.102 E51.98177
G1 X45.483 Y84.272 E52.14450
G1 X46.391 Y82.815 E52.27870
G1 X47.377 Y81.411 E52.41290
G1 X48.207 Y80.345 E52.51855
G1 X49.573 Y78.775 E52.68129
G1 X50.777 Y77.552 E52.81548
G1 X52.046 Y76.398 E52.94968
G1 X53.089 Y75.539 E53.05534
G1 X54.406 Y74.559 E53.18367
G1 E48.18367 F2400.00000
G92 E0
G1 X139.968 Y120.056 F12000.000
G1 E5.00000 F2400.00000
G1 F900
G1 X138.845 Y120.705 E5.10145
G1 X137.687 Y121.290 E5.20291
G1 X136.499 Y121.811 E5.30436
G1 X135.284 Y122.266 E5.40581
G1 X134.046 Y122.654 E5.50727
G1 X132.788 Y122.972 E5.60872
G1 X131.515 Y123.221 E5.71017
G1 X130.230 Y123.399 E5.81163
G1 X128.937 Y123.506 E5.91308
G1 X127.640 Y123.542 E6.01453
G1 X126.343 Y123.506 E6.11599
G1 X125.050 Y123.399 E6.21744
G1 X123.765 Y123.221 E6.31889
G1 X122.492 Y122.972 E6.42035
G1 X121.234 Y122.654 E6.52180
G1 X119.996 Y122.266 E6.62325
G1 X118.781 Y121.811 E6.72470
G1 X117.593 Y121.290 E6.82616
G1 X116.435 Y120.705 E6.92761
G1 X115.312 Y120.056 E7.02906
G1 X114.226 Y119.346 E7.13052
G1 X113.180 Y118.578 E7.23197
G1 X112.179 Y117.753 E7.33342
G1 X111.225 Y116.874 E7.43488
G1 X110.320 Y115.945 E7.53633
G1 X109.468 Y114.966 E7.63778
G1 X108.671 Y113.942 E7.73924
G1 X107.932 Y112.876 E7.84069
G1 X107.507 Y112.185 E7.90410
G1 X107.252 Y111.771 E7.94214
G1 X106.635 Y110.630 E8.04360
G1 X106.081 Y109.457 E8.14505
G1 X105.593 Y108.255 E8.24650
G1 X105.172 Y107.028 E8.34796
G1 X104.819 Y105.779 E8.44941
G1 X104.535 Y104.513 E8.55086
G1 X104.321 Y103.234 E8.65232
G1 X104.179 Y101.944 E8.75377
G1 X104.107 Y100.649 E8.85522
G1 X104.107 Y99.351 E8.95668
G1 X104.179 Y98.056 E9.05813
G1 X104.321 Y96.766 E9.15958
G1 X104.535 Y95.487 E9.26104
G1 X104.819 Y94.221 E9.36249
G1 X105.172 Y92.972 E9.46394
G1 X105.593 Y91.745 E9.56540
G1 X106.081 Y90.543 E9.66685
G1 X106.635 Y89.370 E9.76830
G1 X107.252 Y88.229 E9.86975
G1 X107.932 Y87.124 E9.97121
G1 X108.671 Y86.058 E10.07266
G1 X109.468 Y85.034 E10.17411
G1 X110.320 Y84.055 E10.27557
G1 X111.225 Y83.126 E10.37702
G1 X112.179 Y82.247 E10.47847
G1 X113.180 Y81.422 E10.57993
G1 X114.226 Y80.654 E10.68138
G1 X115.312 Y79.944 E10.78283
G1 X116.435 Y79.295 E10.88429
G1 X117.593 Y78.710 E10.98574
G1 X118.781 Y78.189 E11.08719
G1 X119.996 Y77.734 E11.18865
G1 X121.234 Y77.346 E11.29010
G1 X122.492 Y77.028 E11.39155
G1 X123.765 Y76.779 E11.49301
G1 X125.050 Y76.601 E11.59446
G1 X126.343 Y76.494 E11.69591
G1 X127.640 Y76.458 E11.79737
G1 X128.937 Y76.494 E11.89882
G1 X130.230 Y76.601 E12.00027
G1 X131.515 Y76.779 E12.10173
G1 X132.788 Y77.028 E12.20318
G1 X134.046 Y77.346 E12.30463
G1 X135.284 Y77.734 E12.40609
G1 X136.499 Y78.189 E12.50754
G1 X137.687 Y78.710 E12.60899
G1 X138.845 Y79.295 E12.71045
G1 X139.968 Y79.944 E12.81190
G1 X141.055 Y80.654 E12.91335
G1 X142.100 Y81.422 E13.01480
G1 X143.101 Y82.247 E13.11626
G1 X144.056 Y83.126 E13.21771
G1 X144.961 Y84.055 E13.31916
G1 X145.813 Y85.034 E13.42062
G1 X146.609 Y86.058 E13.52207
G1 X147.349 Y87.124 E13.62352
G1 X148.028 Y88.229 E13.72498
G1 X148.646 Y89.370 E13.82643
G1 X149.199 Y90.543 E13.92788
G1 X149.688 Y91.745 E14.02934
G1 X150.109 Y92.972 E14.13079
G1 X150.462 Y94.221 E14.23224
G1 X150.745 Y95.487 E14.33370
G1 X150.959 Y96.766 E14.43515
G1 X151.102 Y98.056 E14.53660
G1 X151.173 Y99.351 E14.63806
G1 X151.173 Y100.649 E14.73951
G1 X151.102 Y101.944 E14.84096
G1 X150.959 Y103.234 E14.94242
G1 X150.745 Y104.513 E15.04387
G1 X150.462 Y105.779 E15.14532
G1 X150.109 Y107.028 E15.24678
G1 X149.688 Y108.255 E15.34823
G1 X149.199 Y109.457 E15.44968
G1 X148.646 Y110.630 E15.55114
G1 X148.028 Y111.771 E15.65259
G1 X147.349 Y112.876 E15.75404
G1 X146.609 Y113.942 E15.85550
G1 X145.813 Y114.966 E15.95695
G1 X144.961 Y115.945 E16.05840
G1 X144.056 Y116.874 E16.15986
G1 X143.101 Y117.753 E16.26131
G1 X142.100 Y118.578 E16.36276
G1 X141.055 Y119.346 E16.46421
G1 X140.031 Y120.015 E16.55980
G1 X140.281 Y120.597 F12000.000
G1 F900
G1 X139.142 Y121.254 E16.66260
G1 X137.954 Y121.856 E16.76675
G1 X136.735 Y122.391 E16.87090
G1 X135.487 Y122.858 E16.97504
G1 X134.216 Y123.255 E17.07919
G1 X132.925 Y123.582 E17.18334
G1 X131.618 Y123.837 E17.28749
G1 X130.299 Y124.020 E17.39163
G1 X128.972 Y124.130 E17.49578
G1 X127.640 Y124.167 E17.59993
G1 X126.309 Y124.130 E17.70408
G1 X124.982 Y124.020 E17.80822
G1 X123.662 Y123.837 E17.91237
G1 X122.355 Y123.582 E18.01652
G1 X121.064 Y123.255 E18.12066
G1 X119.793 Y122.858 E18.22481
G1 X118.546 Y122.391 E18.32896
G1 X117.326 Y121.856 E18.43311
G1 X116.138 Y121.254 E18.53725
G1 X114.985 Y120.588 E18.64140
G1 X113.870 Y119.860 E18.74555
G1 X112.797 Y119.071 E18.84969
G1 X111.768 Y118.225 E18.95384
G1 X110.789 Y117.323 E19.05799
G1 X109.860 Y116.368 E19.16214
G1 X108.985 Y115.364 E19.26628
G1 X108.167 Y114.313 E19.37043
G1 X107.408 Y113.218 E19.47458
G1 X106.711 Y112.084 E19.57872
G1 X106.077 Y110.912 E19.68287
G1 X105.509 Y109.708 E19.78702
G1 X105.007 Y108.474 E19.89117
G1 X104.575 Y107.214 E19.99531
G1 X104.213 Y105.933 E20.09946
G1 X103.921 Y104.633 E20.20361
G1 X103.702 Y103.319 E20.30775
G1 X103.556 Y101.996 E20.41190
G1 X103.482 Y100.666 E20.51605
G1 X103.482 Y99.334 E20.62020
G1 X103.556 Y98.004 E20.72434
G1 X103.702 Y96.681 E20.82849
G1 X103.921 Y95.367 E20.93264
G1 X104.213 Y94.067 E21.03678
G1 X104.575 Y92.786 E21.14093
G1 X105.007 Y91.526 E21.24508
G1 X105.509 Y90.292 E21.34923
G1 X106.077 Y89.088 E21.45337
G1 X106.711 Y87.916 E21.55752
G1 X107.408 Y86.782 E21.66167
G1 X108.167 Y85.687 E21.76582
G1 X108.985 Y84.636 E21.86996
G1 X109.860 Y83.632 E21.97411
G1 X110.789 Y82.677 E22.07826
G1 X111.768 Y81.775 E22.18240
G1 X112.797 Y80.929 E22.28655
G1 X113.870 Y80.140 E22.39070
G1 X114.985 Y79.412 E22.49485
G1 X116.138 Y78.746 E22.59899
G1 X117.326 Y78.144 E22.70314
G1 X118.546 Y77.609 E22.80729
G1 X119.793 Y77.142 E22.91143
G1 X121.064 Y76.745 E23.01558
G1 X122.355 Y76.418 E23.11973
G1 X123.662 Y76.163 E23.22388
G1 X124.982 Y75.980 E23.32802
G1 X126.309 Y75.870 E23.43217
G1 X127.640 Y75.833 E23.53632
G1 X128.972 Y75.870 E23.64046
G1 X130.299 Y75.980 E23.74461
G1 X131.618 Y76.163 E23.84876
G1 X132.925 Y76.418 E23.95291
G1 X134.216 Y76.745 E24.05705
G1 X135.487 Y77.142 E24.16120
G1 X136.735 Y77.609 E24.26535
G1 X137.954 Y78.144 E24.36949
G1 X139.142 Y78.746 E24.47364
G1 X139.860 Y79.160 E24.53840
G1 X140.296 Y79.412 E24.57779
G1 X141.411 Y80.140 E24.68194
G1 X142.484 Y80.929 E24.78608
G1 X143.512 Y81.775 E24.89023
G1 X144.492 Y82.677 E24.99438
G1 X145.421 Y83.632 E25.09853
G1 X146.295 Y84.636 E25.20267
G1 X147.113 Y85.687 E25.30682
G1 X147.872 Y86.782 E25.41097
G1 X148.570 Y87.916 E25.51511
G1 X149.203 Y89.088 E25.61926
G1 X149.772 Y90.292 E25.72341
G1 X150.273 Y91.526 E25.82756
G1 X150.705 Y92.786 E25.93170
G1 X151.068 Y94.067 E26.03585
G1 X151.359 Y95.367 E26.14000
G1 X151.578 Y96.681 E26.24414
G1 X151.725 Y98.004 E26.34829
G1 X151.798 Y99.334 E26.45244
G1 X151.798 Y100.666 E26.55659
G1 X151.725 Y101.996 E26.66073
G1 X151.578 Y103.319 E26.76488
G1 X151.359 Y104.633 E26.86903
G1 X151.068 Y105.933 E26.97317
G1 X150.705 Y107.214 E27.07732
G1 X150.273 Y108.474 E27.18147
G1 X149.772 Y109.708 E27.28562
G1 X149.203 Y110.912 E27.38976
G1 X148.570 Y112.084 E27.49391
G1 X147.872 Y113.218 E27.59806
G1 X147.113 Y114.313 E27.70220
G1 X146.295 Y115.364 E27.80635
G1 X145.421 Y116.368 E27.91050
G1 X144.492 Y117.323 E28.01465
G1 X143.512 Y118.225 E28.11879
G1 X142.484 Y119.071 E28.22294
G1 X141.411 Y119.860 E28.32709
G1 X140.344 Y120.557 E28.42672
G1 X139.841 Y120.359 F12000.000
G1 E23.42672 F2400.00000
G92 E0
G1 X143.552 Y116.494 F12000.000
G1 E5.00000 F2400.00000
G1 F900
G1 X144.567 Y115.455 E5.11414
G1 X145.396 Y114.502 E5.21335
G1 X146.172 Y113.506 E5.31257
G1 X146.892 Y112.468 E5.41179
G1 X147.213 Y111.946 E5.45997
G1 X139.561 Y119.598 E6.31015
G1 X138.481 Y120.221 E6.40809
G1 X137.607 Y120.663 E6.48502
G1 X148.302 Y109.969 E7.67319
G1 X148.693 Y109.139 E7.74527
G1 X149.001 Y108.382 E7.80948
G1 X136.016 Y121.367 E9.25211
G1 X135.015 Y121.741 E9.33611
G1 X134.635 Y121.860 E9.36743
G1 X149.504 Y106.991 E11.01954
G1 X149.873 Y105.735 E11.12237
G1 X133.380 Y122.227 E12.95480
G1 X132.585 Y122.428 E13.01918
G1 X132.219 Y122.500 E13.04849
