; generated by Slic3r 1.2.9 on 2019-06-04 at 21:58:36

; external perimeters extrusion width = 0.50mm
; perimeters extrusion width = 0.72mm
; infill extrusion width = 0.72mm
; solid infill extrusion width = 0.72mm
; top infill extrusion width = 0.72mm

M107
M190 S60 ; set bed temperature
M104 S225 ; set temperature
G28 ; home all axes
G1 Z5 F5000 ; lift nozzle
M106 L255; Fan on or off only
M109 S225 ; wait for temperature to be reached
G21 ; set units to millimeters
G90 ; use absolute coordinates
M82 ; use absolute distances for extrusion
G92 E0
G1 E-5.00000 F2400.00000
G92 E0
G1 Z0.350 F9000.000
G1 X36.879 Y40.455 F9000.000
G1 E5.00000 F2400.00000
G1 X37.569 Y39.825 E5.06711 F600.000
G1 X38.631 Y38.933 E5.16677
G1 X40.214 Y37.826 E5.30546
G1 X41.892 Y36.787 E5.44726
G1 X42.782 Y36.272 E5.52110
G1 X44.857 Y35.306 E5.68558
G1 X46.698 Y34.593 E5.82740
G1 X47.450 Y34.321 E5.88485
G1 X49.885 Y33.679 E6.06570
G1 X52.258 Y33.240 E6.23906
G1 X53.544 Y33.073 E6.33226
G1 X92.049 Y29.531 E9.10985
G1 X93.072 Y29.468 E9.18354
G1 X127.872 Y28.354 E11.68460
G1 X162.278 Y28.326 E14.15614
G1 X164.782 Y28.326 E14.33604 F600.000
G1 X168.391 Y28.709 E14.59673
G1 X171.994 Y29.888 E14.86907
G1 X174.421 Y31.236 E15.06850
G1 X177.530 Y33.866 E15.36100
G1 X179.772 Y36.857 E15.62954
G1 X180.892 Y39.105 E15.80994
G1 X181.943 Y42.662 E16.07640
G1 X182.219 Y45.660 E16.29265
G1 X182.396 Y83.176 E18.98761
G1 X182.397 Y114.909 E21.26714
G1 X181.992 Y118.596 E21.53360
G1 X180.998 Y121.687 E21.76682
G1 X180.940 Y121.821 E21.77730
G1 X179.301 Y124.794 E22.02118
G1 X168.997 Y139.769 E23.32695
G1 X166.578 Y142.581 E23.59341
G1 X163.600 Y144.819 E23.86101
G1 X152.197 Y151.597 E24.81391
G1 X150.503 Y152.481 E24.95117
G1 X148.413 Y153.428 E25.11605
G1 X145.648 Y154.407 E25.32670
G1 X143.428 Y154.987 E25.49155
G1 X142.181 Y155.263 E25.58332
G1 X55.713 Y171.105 E31.89803
G1 X54.240 Y171.336 E32.00518
G1 X53.022 Y171.476 E32.09322
G1 X51.671 Y171.582 E32.19056
G1 X50.318 Y171.635 E32.28786
G1 X49.371 Y171.635 E32.35585
G1 X48.018 Y171.582 E32.45315
G1 X46.667 Y171.476 E32.55049
G1 X45.449 Y171.336 E32.63852
G1 X44.513 Y171.195 E32.70652
G1 X43.057 Y170.911 E32.81307
G1 X41.740 Y170.595 E32.91042
G1 X40.682 Y170.305 E32.98919
G1 X39.778 Y170.026 E33.05719
G1 X38.261 Y169.479 E33.17300
G1 X37.009 Y168.961 E33.27035
G1 X36.126 Y168.566 E33.33985
G1 X35.273 Y168.155 E33.40784
G1 X33.744 Y167.321 E33.53292
G1 X32.589 Y166.613 E33.63026
G1 X31.885 Y166.158 E33.69050
G1 X31.103 Y165.625 E33.75850
G1 X29.617 Y164.489 E33.89283
G1 X28.587 Y163.609 E33.99017
G1 X27.363 Y162.493 E34.10913
G1 X25.979 Y161.051 E34.25272
G1 X25.099 Y160.021 E34.35006
G1 X24.139 Y158.833 E34.45976
G1 X22.917 Y157.091 E34.61260
G1 X22.209 Y155.935 E34.70994
G1 X21.505 Y154.727 E34.81037
G1 X20.507 Y152.704 E34.97246
G1 X19.868 Y151.153 E35.09297
G1 X19.522 Y150.272 E35.16096
G1 X18.806 Y147.996 E35.33230
G1 X18.235 Y145.567 E35.51154
G1 X17.856 Y143.082 E35.69212
G1 X17.674 Y140.723 E35.86209
G1 X17.632 Y138.985 E35.98699
G1 X18.669 Y99.144 E38.84990
G1 X18.712 Y98.304 E38.91031
G1 X18.894 Y95.945 E39.08028
G1 X19.273 Y93.460 E39.26086
G1 X28.074 Y55.683 E42.04721
G1 X28.315 Y54.749 E42.11649
G1 X28.856 Y52.851 E42.25830
G1 X29.750 Y50.417 E42.44455
G1 X30.939 Y47.995 E42.63839
G1 X31.990 Y46.172 E42.78950
G1 X32.688 Y45.178 E42.87674
G1 X33.877 Y43.604 E43.01850
G1 X34.998 Y42.265 E43.14393
G1 X36.111 Y41.154 E43.25688
G1 X36.823 Y40.505 E43.32610
G1 X37.300 Y40.917 F9000.000
G1 X37.990 Y40.287 E43.39321 F600.000
G1 X39.014 Y39.427 E43.48926
G1 X40.543 Y38.358 E43.62327
G1 X42.221 Y37.319 E43.76507
G1 X43.078 Y36.822 E43.83624
G1 X45.083 Y35.889 E43.99510
G1 X46.924 Y35.175 E44.13692
G1 X47.653 Y34.912 E44.19263
G1 X50.000 Y34.293 E44.36693
G1 X52.362 Y33.856 E44.53949
G1 X53.602 Y33.695 E44.62931
G1 X92.106 Y30.154 E47.40690
G1 X93.093 Y30.092 E47.47792
G1 X127.872 Y28.978 E49.97759
G1 X162.278 Y28.951 E52.44907
G1 X164.782 Y28.951 E52.62897 F600.000
G1 X168.260 Y29.320 E52.88021
G1 X171.796 Y30.485 E53.14767
G1 X174.077 Y31.757 E53.33526
G1 X177.073 Y34.292 E53.61715
G1 X179.269 Y37.233 E53.88081
G1 X180.315 Y39.345 E54.05015
G1 X181.340 Y42.839 E54.31173
G1 X181.595 Y45.663 E54.51536
G1 X181.771 Y83.179 E57.21032
G1 X181.772 Y114.908 E59.48957
G1 X181.368 Y118.527 E59.75115
G1 X180.424 Y121.440 E59.97114
G1 X180.366 Y121.574 E59.98162
G1 X178.786 Y124.439 E60.21667
G1 X168.482 Y139.415 E61.52243
G1 X166.102 Y142.170 E61.78401
G1 X163.281 Y144.282 E62.03715
G1 X151.878 Y151.060 E62.99005
G1 X150.245 Y151.912 E63.12234
G1 X148.155 Y152.859 E63.28722
G1 X145.491 Y153.803 E63.49023
G1 X143.270 Y154.382 E63.65509
G1 X142.068 Y154.649 E63.74353
G1 X55.601 Y170.491 E70.05824
G1 X54.146 Y170.718 E70.16398
G1 X52.973 Y170.853 E70.24882
G1 X51.622 Y170.959 E70.34617
G1 X50.318 Y171.010 E70.43994
G1 X49.371 Y171.010 E70.50793
G1 X48.067 Y170.959 E70.60170
G1 X46.716 Y170.853 E70.69905
G1 X45.542 Y170.718 E70.78389
G1 X44.606 Y170.577 E70.85189
G1 X43.203 Y170.304 E70.95458
G1 X41.886 Y169.987 E71.05193
G1 X40.866 Y169.708 E71.12784
G1 X39.962 Y169.429 E71.19584
G1 X38.500 Y168.902 E71.30746
G1 X37.248 Y168.383 E71.40480
G1 X36.397 Y168.003 E71.47179
G1 X35.544 Y167.592 E71.53978
G1 X34.071 Y166.788 E71.66033
G1 X32.237 Y165.641 E71.81572
G1 X31.455 Y165.108 E71.88371
G1 X30.023 Y164.014 E72.01318
G1 X28.992 Y163.134 E72.11052
G1 X27.788 Y162.035 E72.22764
G1 X26.454 Y160.645 E72.36602
G1 X25.574 Y159.615 E72.46336
G1 X24.627 Y158.443 E72.57155
G1 X23.450 Y156.764 E72.71885
G1 X22.742 Y155.609 E72.81620
G1 X22.046 Y154.415 E72.91545
G1 X21.085 Y152.465 E73.07166
G1 X20.450 Y150.924 E73.19134
G1 X20.104 Y150.043 E73.25933
G1 X19.414 Y147.850 E73.42446
G1 X18.845 Y145.428 E73.60319
G1 X18.479 Y143.033 E73.77723
G1 X18.297 Y140.677 E73.94704
G1 X18.256 Y139.001 E74.06742
G1 X19.294 Y99.160 E76.93032
G1 X19.335 Y98.351 E76.98854
G1 X19.517 Y95.994 E77.15835
G1 X19.882 Y93.599 E77.33239
G1 X28.682 Y55.825 E80.11853
G1 X28.916 Y54.920 E80.18565
G1 X29.457 Y53.022 E80.32745
G1 X30.321 Y50.672 E80.50730
G1 X31.499 Y48.273 E80.69925
G1 X32.511 Y46.517 E80.84490
G1 X33.186 Y45.555 E80.92932
G1 X34.376 Y43.980 E81.07107
G1 X35.457 Y42.690 E81.19196
G1 X36.532 Y41.616 E81.30117
G1 X37.244 Y40.967 E81.37038
G1 E76.37038 F2400.00000
G92 E0
G1 X117.880 Y125.804 F9000.000
G1 E5.00000 F2400.00000
G1 X125.487 Y125.804 E5.54643 F600.000
G1 X126.627 Y126.619 E5.64711
G1 X127.492 Y129.124 E5.83752 F600.000
G1 X128.301 Y130.601 E5.95845
G1 X128.756 Y131.180 E6.01137
G1 X129.013 Y131.304 E6.03188
G1 X133.221 Y131.304 E6.33416
G1 X134.025 Y131.637 E6.39666
G1 X135.597 Y133.209 E6.55635
G1 X135.827 Y133.304 E6.57420
G1 X137.746 Y133.304 E6.71206
G1 X137.975 Y133.209 E6.72992
G1 X139.547 Y131.637 E6.88960
G1 X140.351 Y131.304 E6.95211
G1 X144.559 Y131.304 E7.25438
G1 X144.816 Y131.180 E7.27490
G1 X145.271 Y130.601 E7.32781
G1 X146.080 Y129.124 E7.44874
G1 X146.945 Y126.618 E7.63916
G1 X148.085 Y125.804 E7.73984
G1 X155.692 Y125.804 E8.28626
G1 X156.973 Y127.085 E8.41641
G1 X156.973 Y130.897 E8.69024
G1 X155.692 Y132.178 E8.82039
G1 X150.885 Y132.178 E9.16571
G1 X150.583 Y132.364 E9.19119
G1 X150.212 Y133.105 E9.25069
G1 X150.115 Y133.264 E9.26408
G1 X148.644 Y135.262 E9.44231
G1 X148.521 Y135.402 E9.45569
G1 X146.732 Y137.122 E9.63395
G1 X146.587 Y137.239 E9.64733
G1 X144.533 Y138.632 E9.82559
G1 X144.371 Y138.723 E9.83897
G1 X142.111 Y139.747 E10.01723
G1 X141.935 Y139.809 E10.03061
G1 X139.534 Y140.436 E10.20884
G1 X139.351 Y140.467 E10.22222
G1 X136.879 Y140.678 E10.40039
G1 X136.693 Y140.678 E10.41378
G1 X134.222 Y140.467 E10.59195
G1 X134.038 Y140.436 E10.60534
G1 X131.637 Y139.809 E10.78357
G1 X131.462 Y139.747 E10.79695
G1 X129.201 Y138.723 E10.97521
G1 X129.039 Y138.632 E10.98858
G1 X126.985 Y137.239 E11.16685
G1 X126.840 Y137.122 E11.18023
G1 X125.051 Y135.402 E11.35849
G1 X124.929 Y135.262 E11.37187
G1 X123.458 Y133.264 E11.55009
G1 X123.360 Y133.105 E11.56347
G1 X122.989 Y132.364 E11.62299
G1 X122.687 Y132.178 E11.64847
G1 X117.880 Y132.178 E11.99379
G1 X116.599 Y130.897 E12.12394
G1 X116.599 Y127.085 E12.39776
G1 X117.827 Y125.857 E12.52253
G1 X118.139 Y126.429 F9000.000
G1 X125.287 Y126.429 E13.03598 F600.000
G1 X126.101 Y127.011 E13.10789 F600.000
G1 X126.918 Y129.378 E13.28776
G1 X127.779 Y130.948 E13.41638
G1 X128.455 Y131.805 E13.49479
G1 X128.712 Y131.929 E13.51530
G1 X133.097 Y131.929 E13.83030
G1 X133.671 Y132.167 E13.87494
G1 X135.110 Y133.606 E14.02117
G1 X135.157 Y133.718 E14.02989
G1 X135.472 Y133.929 E14.05712
G1 X138.100 Y133.929 E14.24590
G1 X138.415 Y133.718 E14.27313
G1 X138.462 Y133.606 E14.28185
G1 X139.901 Y132.167 E14.42808
G1 X140.475 Y131.929 E14.47272
G1 X144.860 Y131.929 E14.78772
G1 X145.118 Y131.805 E14.80823
G1 X145.794 Y130.948 E14.88664
G1 X146.654 Y129.378 E15.01526
G1 X147.471 Y127.011 E15.19513
G1 X148.286 Y126.429 E15.26704
G1 X155.433 Y126.429 E15.78049
G1 X156.348 Y127.344 E15.87346
G1 X156.348 Y130.638 E16.11009
G1 X155.433 Y131.553 E16.20306
G1 X150.499 Y131.553 E16.55750
G1 X150.197 Y131.740 E16.58298
G1 X149.596 Y132.915 E16.67782
G1 X148.156 Y134.870 E16.85223
G1 X146.318 Y136.653 E17.03619
G1 X144.205 Y138.100 E17.22016
G1 X141.877 Y139.167 E17.40412
G1 X139.271 Y139.847 E17.59757
G1 X136.720 Y140.053 E17.78145
G1 X134.301 Y139.847 E17.95581
G1 X131.695 Y139.167 E18.14927
G1 X129.484 Y138.165 E18.32370
G1 X127.357 Y136.737 E18.50767
G1 X125.416 Y134.870 E18.70115
G1 X123.976 Y132.915 E18.87555
G1 X123.375 Y131.740 E18.97040
G1 X123.073 Y131.553 E18.99588
G1 X118.139 Y131.553 E19.35032
G1 X117.224 Y130.638 E19.44329
G1 X117.224 Y127.344 E19.67992
G1 X118.086 Y126.482 E19.76750
G1 X118.398 Y127.054 F9000.000
G1 X125.086 Y127.054 E20.24797 F600.000
G1 X125.575 Y127.403 E20.29113
G1 X126.344 Y129.631 E20.46045 F600.000
G1 X127.256 Y131.295 E20.59676
G1 X128.153 Y132.430 E20.70066
G1 X128.410 Y132.554 E20.72117
G1 X132.973 Y132.554 E21.04888
G1 X133.317 Y132.696 E21.07567
G1 X134.581 Y133.960 E21.20405
G1 X134.739 Y134.343 E21.23382
G1 X135.055 Y134.554 E21.26106
G1 X138.518 Y134.554 E21.50982
G1 X138.833 Y134.343 E21.53705
G1 X138.991 Y133.960 E21.56683
G1 X140.255 Y132.696 E21.69521
G1 X140.600 Y132.554 E21.72200
G1 X145.162 Y132.554 E22.04971
G1 X145.419 Y132.430 E22.07022
G1 X146.316 Y131.295 E22.17412
G1 X147.228 Y129.631 E22.31043
G1 X147.997 Y127.403 E22.47976
G1 X148.486 Y127.054 E22.52291
G1 X155.174 Y127.054 E23.00338
G1 X155.723 Y127.603 E23.05916
G1 X155.723 Y130.379 E23.25861
G1 X155.174 Y130.928 E23.31439
G1 X150.113 Y130.928 E23.67795
G1 X149.811 Y131.115 E23.70343
G1 X149.077 Y132.566 E23.82027
G1 X147.669 Y134.478 E23.99085
G1 X145.904 Y136.184 E24.16718
G1 X143.876 Y137.567 E24.34351
G1 X141.643 Y138.587 E24.51984
G1 X139.191 Y139.227 E24.70185
G1 X136.746 Y139.428 E24.87810
G1 X134.381 Y139.227 E25.04864
G1 X131.929 Y138.587 E25.23066
G1 X129.766 Y137.606 E25.40127
G1 X127.730 Y136.235 E25.57760
G1 X125.903 Y134.478 E25.75964
G1 X124.495 Y132.566 E25.93023
G1 X123.761 Y131.115 E26.04707
G1 X123.459 Y130.928 E26.07255
G1 X118.398 Y130.928 E26.43611
G1 X117.849 Y130.379 E26.49189
G1 X117.849 Y127.603 E26.69134
G1 X118.345 Y127.107 E26.74173
G1 X118.657 Y127.679 F9000.000
G1 X124.886 Y127.679 E27.18923 F600.000
G1 X125.049 Y127.795 E27.20361
G1 X125.771 Y129.884 E27.36240
G1 X126.734 Y131.642 E27.50640
G1 X127.852 Y133.055 E27.63578
G1 X128.109 Y133.179 E27.65630
G1 X132.848 Y133.179 E27.99673
G1 X132.963 Y133.226 E28.00566
G1 X134.051 Y134.314 E28.11617
G1 X134.099 Y134.429 E28.12510
G1 X134.099 Y134.813 E28.15266
G1 X134.465 Y135.179 E28.18985
G1 X139.108 Y135.179 E28.52338
G1 X139.474 Y134.813 E28.56056
G1 X139.474 Y134.429 E28.58812
G1 X139.521 Y134.314 E28.59705
G1 X140.609 Y133.226 E28.70757
G1 X140.724 Y133.179 E28.71650
G1 X145.463 Y133.179 E29.05692
G1 X145.720 Y133.055 E29.07744
G1 X146.838 Y131.642 E29.20683
G1 X147.801 Y129.884 E29.35082
G1 X148.523 Y127.795 E29.50961
G1 X148.686 Y127.679 E29.52400
G1 X154.915 Y127.679 E29.97149
G1 X155.099 Y127.862 E29.99008
G1 X155.099 Y130.120 E30.15235
G1 X154.915 Y130.303 E30.17094
G1 X149.727 Y130.303 E30.54362
G1 X149.426 Y130.490 E30.56911
G1 X148.558 Y132.217 E30.70794
G1 X147.164 Y134.106 E30.87661
G1 X145.490 Y135.716 E31.04340
G1 X143.547 Y137.035 E31.21210
G1 X141.384 Y138.015 E31.38270
G1 X139.112 Y138.606 E31.55137
G1 X136.773 Y138.803 E31.71999
G1 X134.460 Y138.606 E31.88671
G1 X132.188 Y138.015 E32.05538
G1 X130.025 Y137.035 E32.22598
G1 X128.103 Y135.732 E32.39278
G1 X126.408 Y134.106 E32.56147
G1 X125.014 Y132.217 E32.73014
G1 X124.147 Y130.490 E32.86897
G1 X123.845 Y130.303 E32.89445
G1 X118.657 Y130.303 E33.26714
G1 X118.474 Y130.120 E33.28573
G1 X118.474 Y127.862 E33.44799
G1 X118.604 Y127.732 E33.46120
G1 E28.46120 F2400.00000
G92 E0
G1 X137.392 Y106.417 F9000.000
G1 E5.00000 F2400.00000
G1 X141.892 Y106.410 E5.32331 F600.000
G1 X142.319 Y106.495 E5.35452
G1 X143.105 Y106.840 E5.41623
G1 X143.681 Y107.437 E5.47580
G1 X143.958 Y108.077 E5.52594
G1 X144.065 Y108.551 E5.56080
G1 X144.061 Y115.663 E6.07172
G1 X143.932 Y116.180 E6.11001
G1 X143.687 Y116.727 E6.15302
G1 X143.153 Y117.302 E6.20938
G1 X142.744 Y117.509 E6.24231
G1 X142.320 Y117.688 E6.27538
G1 X141.898 Y117.772 E6.30633
G1 X127.906 Y117.770 E7.31141
G1 X127.558 Y117.714 E7.33672
G1 X127.244 Y117.609 E7.36054
G1 X126.926 Y117.474 E7.38535
G1 X126.651 Y117.300 E7.40872
G1 X126.319 Y117.014 E7.44018
G1 X126.021 Y116.601 E7.47677
G1 X125.791 Y116.050 E7.51970
G1 X125.706 Y115.625 E7.55083
G1 X125.706 Y108.505 E8.06224
G1 X125.749 Y108.147 E8.08818
G1 X125.903 Y107.508 E8.13541
G1 X125.997 Y107.261 E8.15439
G1 X126.164 Y106.940 E8.18038
G1 X126.376 Y106.658 E8.20571
G1 X126.768 Y106.232 E8.24729
G1 X126.965 Y106.057 E8.26627
G1 X135.828 Y99.921 E9.04062
G1 X135.828 Y99.266 E9.08765
G1 X127.002 Y93.155 E9.85883
G1 X126.732 Y92.915 E9.88477
G1 X126.294 Y92.425 E9.93200
G1 X126.144 Y92.207 E9.95098
G1 X125.976 Y91.887 E9.97696
G1 X125.865 Y91.552 E10.00229
G1 X125.737 Y90.988 E10.04387
G1 X125.706 Y90.726 E10.06285
G1 X125.705 Y82.698 E10.63951
G1 X126.986 Y81.416 E10.76969
G1 X141.826 Y81.417 E11.83570
G1 X142.393 Y81.516 E11.87708
G1 X142.790 Y81.678 E11.90785
G1 X143.129 Y81.902 E11.93702
G1 X143.326 Y82.069 E11.95563
G1 X143.567 Y82.328 E11.98101
G1 X143.778 Y82.655 E12.00900
G1 X143.983 Y83.146 E12.04721
G1 X144.067 Y83.614 E12.08133
G1 X144.062 Y90.658 E12.58734
G1 X143.933 Y91.179 E12.62589
G1 X143.687 Y91.727 E12.66904
G1 X143.153 Y92.302 E12.72541
G1 X142.744 Y92.509 E12.75833
G1 X142.320 Y92.688 E12.79140
G1 X141.898 Y92.772 E12.82235
G1 X137.395 Y92.772 E13.14583
G1 X137.121 Y93.649 E13.21184
G1 X142.021 Y97.042 E13.63995
G1 X142.319 Y97.318 E13.66916
G1 X142.755 Y97.810 E13.71642
G1 X142.950 Y98.125 E13.74302
G1 X143.074 Y98.429 E13.76660
G1 X143.267 Y99.167 E13.82140
G1 X143.299 Y99.429 E13.84037
G1 X143.299 Y99.757 E13.86394
G1 X143.267 Y100.020 E13.88292
G1 X143.123 Y100.607 E13.92636
G1 X142.940 Y101.086 E13.96321
G1 X142.709 Y101.441 E13.99364
G1 X142.240 Y101.955 E14.04359
G1 X142.042 Y102.130 E14.06257
G1 X137.118 Y105.540 E14.49284
G1 X137.369 Y106.345 E14.55346
G1 E9.55346 F2400.00000
G92 E0
G1 X135.391 Y107.042 F9000.000
G1 E5.00000 F2400.00000
G1 X141.832 Y107.036 E5.46270 F600.000
G1 X142.137 Y107.096 E5.48499
G1 X142.738 Y107.359 E5.53212
G1 X143.149 Y107.785 E5.57467
G1 X143.364 Y108.282 E5.61354
G1 X143.440 Y108.620 E5.63843
G1 X143.436 Y115.586 E6.13884
G1 X143.344 Y115.956 E6.16618
G1 X143.153 Y116.384 E6.19990
G1 X142.771 Y116.795 E6.24016
G1 X142.138 Y117.087 E6.29027
G1 X141.836 Y117.147 E6.31238
G1 X127.956 Y117.145 E7.30942
G1 X127.708 Y117.105 E7.32750
G1 X127.220 Y116.921 E7.36494
G1 X127.024 Y116.797 E7.38163
G1 X126.783 Y116.589 E7.40452
G1 X126.569 Y116.294 E7.43066
G1 X126.391 Y115.866 E7.46392
G1 X126.331 Y115.563 E7.48615
G1 X126.330 Y108.531 E7.99132
G1 X126.364 Y108.260 E8.01094
G1 X126.501 Y107.694 E8.05275
G1 X126.568 Y107.517 E8.06631
G1 X126.695 Y107.275 E8.08596
G1 X126.846 Y107.073 E8.10405
G1 X127.211 Y106.674 E8.14292
G1 X127.352 Y106.549 E8.15648
